!!!COM: Mozart, Wolfgang Amadeus
!!!OTL: Musikalische Würfelspiele, Kontre-Tänze
!!!SCA: K<sup>6</sup> Anh. C30.01 (K<sup>3</sup> Anh. 294d)
**kern	**kern
*staff2	*staff2
*clefF4	*clefG2
*M2/4	*M2/4
*MM110	*MM110
*>[A,A1,A,A2,B]	*>[A,A1,A,A2,B]
*>norep[A,A2,B]	*>norep[A,A2,B]
*>A	*>A
=145	=145
16C	4G: 4e: 4cc:
16E	.
16G	.
16E	.
4C	16cc
.	16dd
.	16ee
.	16ff
=114	=114
4C	8gg
.	16aa
.	16gg
4r	16ff
.	16ee
.	16dd
.	16cc
=131	=131
16GG	8ff
16D	.
16BB	4dd
16D	.
16GG	.
16D	.
16BB	8b
16D	.
=69	=69
4C	8cc
.	16g
.	16e
4r	8c
.	8c
=117	=117
16D	8aa
16A	.
16F#	4ff#
16A	.
16D	.
16A	.
16F#	8dd
16A	.
=123	=123
4G	8gg
.	8dd
4GG	8b
.	8g
=132	=132
16C	8ee
16A	.
16F#	4cc
16A	.
16AA	.
16D	.
16C	16a
16D	16f#
=115	=115
*>A1	*>A1
4GG	4g 4b 4gg
16G	4r
16F	.
16E	.
16D	.
=115:|!	=115:|!
*>A2	*>A2
4GG	4g 4b 4gg
16GG	4r
16AA	.
16BB	.
16C#	.
=66||	=66||
*>B	*>B
4D	8ff#
.	16ff#
.	16aa
4D	8ddd
.	16aa
.	16ff#
=34	=34
8G	16gg
.	16bb
8r	16gg
.	16dd
8GG	16b
.	16gg
8r	16dd
.	16b
=87	=87
4C	8ee
.	16cc
.	16ee
4r	8gg
.	16ee
.	16cc
=107	=107
16BB	8dd
16D	.
16G	4b
16D	.
16G	.
16F	.
16E	8g
16D	.
=94	=94
16C	8cc
16E	.
16G	8ee
16E	.
16C	8gg
16E	.
16G	8ee
16E	.
=103	=103
4C	16gg
.	16ccc
.	16gg
.	16ff
4r	16ee
.	16cc
.	16ee
.	16gg
=109	=109
16GG	8dd
16D	.
16BB	4ff
16D	.
16GG	.
16D	.
16BB	8b
16D	.
=74	=74
4C	4cc
4CC	4c
==	==
*-	*-
